X: 36467
T: Secs And Cosecs
R: jig
M: 6/8
K: Dmixolydian
D|:D2 d d^cd|B2 AA2 F|FED GED|CEG GFG|
D2 d d^cd|B2 AA2 =F|=FEF GED|1 C2 c BAG:|2 cBc A2 E||
cBc A2 =F|Bcd dBG|cBc A2 E|=FED E2 A,|
cBc A2 =F|Bcd dBG|dee edB|1 dee edB:|2 dee e3||

